X:1
T:J. S. Bach
T:BWV 988
T:Goldberg Variations: Variation XXVII
%%score { 1 | 2 }
L:1/8
M:6/8
K:G
V:1 treble nm="Harp"
V:2 bass 
V:1
 z6 | AB/^c/d/e/ f/e/d/e/f | G z2 e z2 | FG/A/B/c/ d/e/d/c/d | d z2 G z2 | %5
 c/d/c/B/A/G/ F/A/c/e/d/c/ | B/c/B/A/G/F/ E/G/B/d/c/B/ | Ac/4B/4A/4B/4c D d2- | %8
 d/f/e/d/^c/B/ c/d/e/c/d/e/ | %9
 B/4A/4B/4A/4B/4A/4B/4A/4B/4A/4B/4A/4 B/4A/4B/4A/4B/4A/4B/4A/4B/4A/4B/4A/4 | %10
 G/4A/4A/G/F/E/D/ ^C/D/E/D/E/C/ | F z2 B, z2 | B/c/B/A/G/F/ E/G/B/d/^c/B/ | %13
 A/B/A/G/F/E/ ^D/F/A/c/B/A/ | GB/4A/4G/4A/4 B2 AG- | G/F/E/D/E/^C/ D3 | z6 | AB/^c/d/e/ f/e/d/e/f | %18
 G z2 e z2 | FG/A/B/c/ d/e/d/c/d | d z2 G z2 | c/d/c/B/A/G/ F/A/c/e/d/c/ | %22
 B/c/B/A/G/F/ E/G/B/d/c/B/ | Ac/4B/4A/4B/4c D d2- | d/f/e/d/^c/B/ c/d/e/c/d/e/ | %25
 B/4A/4B/4A/4B/4A/4B/4A/4B/4A/4B/4A/4 B/4A/4B/4A/4B/4A/4B/4A/4B/4A/4B/4A/4 | %26
 G/4A/4A/G/F/E/D/ ^C/D/E/D/E/C/ | F z2 B, z2 | B/c/B/A/G/F/ E/G/B/d/^c/B/ | %29
 A/B/A/G/F/E/ ^D/F/A/c/B/A/ | GB/4A/4G/4A/4 B2 AG- | G/F/E/D/E/^C/ D3 | ag/f/e/d/ c/d/e/d/c/a/ | %33
 B z2 g z2 | c'/d'/c'/b/a/g/ a/b/a/g/f/e/ | _ef/4=e/4d/4e/4f B3- | B/A/B/d/c/B/ c/=f/c/A/=F/A/ | %37
 ^D/E/F/A/G/F/ GA/4G/4A/4G/4A/4G/4F/4G/4 | A/B/c/B/A B/4A/4G/4A/4 A2- | %39
 A/F/G/A/B/c/ d/c/B/A/^G/F/ | E/^G/A/B/c/d/ e/d/c/d/e | A z2 f z2 | Bc/d/e/f/ g/a/g/f/g/e/ | %43
 c'/b/a/g/f/e/ d3- | d/c/d/e/f/g/ a/e/c/A/B/c/ | F/G/A/B/c/A/ B/d/g z | z ed cd/c/B/A/ | %47
 B/d/B/G/A/F/ G/4F/4G/- G2 | ag/f/e/d/ c/d/e/d/c/a/ | B z2 g z2 | c'/d'/c'/b/a/g/ a/b/a/g/f/e/ | %51
 _ef/4=e/4d/4e/4f B3- | B/A/B/d/c/B/ c/=f/c/A/=F/A/ | ^D/E/F/A/G/F/ GA/4G/4A/4G/4A/4G/4F/4G/4 | %54
 A/B/c/B/A B/4A/4G/4A/4 A2- | A/F/G/A/B/c/ d/c/B/A/^G/F/ | E/^G/A/B/c/d/ e/d/c/d/e | A z2 f z2 | %58
 Bc/d/e/f/ g/a/g/f/g/e/ | c'/b/a/g/f/e/ d3- | d/c/d/e/f/g/ a/e/c/A/B/c/ | F/G/A/B/c/A/ B/d/g z | %62
 z ed cd/c/B/A/ | B/d/B/G/A/F/ G/4F/4G/- G2 |] %64
V:2
 G,A,/B,/C/D/ E/D/C/D/E | F, z2 D z2 | E,F,/G,/A,/B,/ C/D/C/B,/C | C z2 F, z2 | %4
 B,/C/B,/A,/G,/F,/ E,/G,/B,/D/C/B,/ | A,/B,/A,/G,/F,/E,/ D,/F,/A,/C/B,/A,/ | %6
 G,B,/4A,/4G,/4A,/4B, C, C2- | C/E/D/C/B,/A,/ B,/C/D/B,/C/D/ | %8
 A,/4G,/4A,/4G,/4A,/4G,/4A,/4G,/4A,/4G,/4A,/4G,/4 A,/4G,/4A,/4G,/4A,/4G,/4A,/4G,/4A,/4G,/4A,/4G,/4 | %9
 F,/4G,/4G,/F,/E,/D,/^C,/ B,,/C,/D,/C,/D,/B,,/ | E, z2 A,, z2 | %11
 A,/B,/A,/G,/F,/E,/ D,/F,/A,/C/B,/A,/ | G,/A,/G,/F,/E,/D,/ ^C,/E,/G,/B,/A,/G,/ | %13
 F,A,/4G,/4F,/4G,/4A,- A,G,F,- | %14
 F,/E,/D,/^C,/D,/B,,/ D,/4C,/4D,/4C,/4D,/4C,/4D,/4C,/4D,/4C,/4B,,/4C,/4 | D,F,,A,, D,,3 | %16
 G,A,/B,/C/D/ E/D/C/D/E | F, z2 D z2 | E,F,/G,/A,/B,/ C/D/C/B,/C | C z2 F, z2 | %20
 B,/C/B,/A,/G,/F,/ E,/G,/B,/D/C/B,/ | A,/B,/A,/G,/F,/E,/ D,/F,/A,/C/B,/A,/ | %22
 G,B,/4A,/4G,/4A,/4B, C, C2- | C/E/D/C/B,/A,/ B,/C/D/B,/C/D/ | %24
 A,/4G,/4A,/4G,/4A,/4G,/4A,/4G,/4A,/4G,/4A,/4G,/4 A,/4G,/4A,/4G,/4A,/4G,/4A,/4G,/4A,/4G,/4A,/4G,/4 | %25
 F,/4G,/4G,/F,/E,/D,/^C,/ B,,/C,/D,/C,/D,/B,,/ | E, z2 A,, z2 | %27
 A,/B,/A,/G,/F,/E,/ D,/F,/A,/C/B,/A,/ | G,/A,/G,/F,/E,/D,/ ^C,/E,/G,/B,/A,/G,/ | %29
 F,A,/4G,/4F,/4G,/4A,- A,G,F,- | %30
 F,/E,/D,/^C,/D,/B,,/ D,/4C,/4D,/4C,/4D,/4C,/4D,/4C,/4D,/4C,/4B,,/4C,/4 | D,F,,A,, D,,3 | z6 | %33
[K:treble] GF/E/D/C/ B,/C/D/C/B,/G/ | A, z2 F z2 | B/c/B/A/G/F/ G/A/G/F/E/D/ | %36
 CE/4D/4C/4D/4E[K:bass] A,3- | A,/G,/A,/C/B,/A,/ B,/E/B,/G,/E,/G,/ | %38
 ^C,/^D,/E,/G,/F,/E,/ F,G,/4F,/4G,/4F,/4G,/4F,/4E,/4F,/4 | G,/A,/B,/A,/G, A,/4^G,/4F,/4G,/4 G,2- | %40
 G,/E,/F,/^G,/A,/B,/ C/B,/A,/=G,/F,/E,/ | D,/F,/G,/A,/B,/C/ D/C/B,/C/D | G, z2 E z2 | %43
[K:treble] A,B,/C/D/E/ F/G/F/E/F/D/ | B/A/G/F/E/D/ C3- | C/B,/C/D/E/F/ G/D/B,/G,/A,/B,/ | %46
[K:bass] E,/F,/G,/A,/B,/G,/ A,/C/F z | z DC B,C/B,/A,/G,/ | z6 | GF/E/D/C/ B,/C/D/C/B,/G/ | %50
 A, z2 F z2 | B/c/B/A/G/F/ G/A/G/F/E/D/ | CE/4D/4C/4D/4E A,3- | %53
 A,/G,/A,/C/B,/A,/ B,/E/B,/G,/E,/G,/ | ^C,/^D,/E,/G,/F,/E,/ F,G,/4F,/4G,/4F,/4G,/4F,/4E,/4F,/4 | %55
 G,/A,/B,/A,/G, A,/4^G,/4F,/4G,/4 G,2- | G,/E,/F,/^G,/A,/B,/ C/B,/A,/=G,/F,/E,/ | %57
 D,/F,/G,/A,/B,/C/ D/C/B,/C/D | G, z2 E z2 | A,B,/C/D/E/ F/G/F/E/F/D/ | B/A/G/F/E/D/ C3- | %61
 C/B,/C/D/E/F/ G/D/B,/G,/A,/B,/ | E,/F,/G,/A,/B,/G,/ A,/C/F z | z DC B,C/B,/A,/G,/ |] %64

